azure-patterns/svg-microsoft-authenticator.svg

<svg xmlns="http://www.w3.org/2000/svg" viewBox="0 0 38 50">
                                
                            
<path d="M18.8532 4.71889C20.8777 4.71255 22.8248 5.49709 24.2793 6.90533C25.7339 8.31357 26.581 10.2342 26.6402 12.2579C28.1912 12.4649 29.7822 12.7409 31.4052 13.0969C31.4165 12.8849 31.4218 12.6716 31.4212 12.4569C31.3916 9.14293 30.0544 5.97476 27.7006 3.64183C25.3467 1.30889 22.1668 0 18.8527 0C15.5386 0 12.3586 1.30889 10.0048 3.64183C7.65094 5.97476 6.31374 9.14293 6.28418 12.4569C6.28418 12.6569 6.29018 12.8569 6.29918 13.0569C7.69918 12.7569 9.29918 12.4689 11.0662 12.2399C11.1299 10.2193 11.9791 8.30329 13.4332 6.89888C14.8872 5.49447 16.8316 4.71242 18.8532 4.71889V4.71889Z" fill="#323237"></path>
<path d="M0 17.2029V21.8849C0 42.9509 18.853 49.9729 18.853 49.9729C18.853 49.9729 37.706 42.9509 37.706 21.8849V17.2029C25.4868 13.0115 12.2192 13.0115 0 17.2029H0ZM25.137 35.9249H12.569V35.1489C12.5713 33.841 12.984 32.5668 13.749 31.5059C14.514 30.445 15.5927 29.6511 16.833 29.2359C15.8658 28.7773 15.0835 28.0033 14.6147 27.041C14.1459 26.0788 14.0185 24.9856 14.2535 23.9414C14.4885 22.8971 15.0719 21.9639 15.9078 21.2953C16.7436 20.6267 17.7821 20.2624 18.8525 20.2624C19.9229 20.2624 20.9614 20.6267 21.7972 21.2953C22.6331 21.9639 23.2165 22.8971 23.4515 23.9414C23.6865 24.9856 23.5591 26.0788 23.0903 27.041C22.6215 28.0033 21.8392 28.7773 20.872 29.2359C22.1124 29.651 23.1912 30.445 23.9564 31.5058C24.7215 32.5666 25.1345 33.8409 25.137 35.1489V35.9249Z" fill="#323237"></path>
</svg>

<svg xmlns="http://www.w3.org/2000/svg" viewBox="0 0 38 50"><path d="M18.853 4.719a7.766 7.766 0 0 1 7.787 7.539c1.551.207 3.142.483 4.765.839.011-.212.017-.425.016-.64a12.57 12.57 0 0 0-25.137 0c0 .2.006.4.015.6 1.4-.3 3-.588 4.767-.817a7.766 7.766 0 0 1 7.787-7.521z" fill="#323237"/><path d="M0 17.203v4.682C0 42.95 18.853 49.973 18.853 49.973s18.853-7.022 18.853-28.088v-4.682a58.106 58.106 0 0 0-37.706 0zm25.137 18.722H12.569v-.776a6.247 6.247 0 0 1 4.264-5.913 4.714 4.714 0 1 1 4.039 0 6.248 6.248 0 0 1 4.265 5.913v.776z" fill="#323237"/></svg>
